X: 1
T: Wandering Minstrel March, The
Z: ceolachan
S: https://thesession.org/tunes/8769#setting8769
R: barndance
M: 4/4
L: 1/8
K: Dmaj
|: AB/c/ |d2 A2 F2 d/e/f | e>dcB A2 g2 | f2 df gfed | c>dec Agfe |
d3 A F>Adf | edcB A3 g | f2 de/f/ gecA | d2 d>c d2- :|
|: de |f2 a2 d2 a2 | gg/f/ed c2 B/c/d | e3 f gece | d2 e/d/c A3 f/e/ |
d2 A2 F3 f | e2 d/c/B A3 g | f2 df g2 e/c/A | d2 d>c d2- :|
